Papirus/22x22/panel/microphone-sensitivity-muted.svg

<svg xmlns="http://www.w3.org/2000/svg" width="22" height="22" version="1.1">
 <defs>
  <style id="current-color-scheme" type="text/css">
   .ColorScheme-Text { color:#dfdfdf; } .ColorScheme-Highlight { color:#4285f4; } .ColorScheme-NeutralText { color:#ff9800; } .ColorScheme-PositiveText { color:#4caf50; } .ColorScheme-NegativeText { color:#f44336; }
  </style>
 </defs>
 <path style="opacity:0.35;fill:currentColor" class="ColorScheme-Text" d="M 11,3 C 9.6398,3 8.5123312,3.9058712 8.1445312,5.1445312 L 14,11 V 6 C 14,4.34 12.66,3 11,3 Z M 5.5,4 4,5.5 8,9.5 V 11 c 0,1.66 1.34,3 3,3 0.439657,0 0.848873,-0.1057 1.222656,-0.277344 l 0.748047,0.748047 C 12.391844,14.803497 11.724335,15 11,15 8.77,15 7,13.23 7,11 V 10 H 5 v 1 c 0,2.97 2.16,5.430156 5,5.910156 V 19 h 2 v -2.089844 c 0.889269,-0.14978 1.702183,-0.504247 2.410156,-1 L 16.5,18 18,16.5 Z m 9.5,6 v 1 c 0,0.3068 -0.05114,0.597059 -0.119141,0.880859 l 1.56836,1.56836 C 16.792219,12.700419 17,11.8778 17,11 v -1 z"/>
</svg>

<svg xmlns="http://www.w3.org/2000/svg" width="22" height="22" version="1.1">
 <defs>
  <style id="current-color-scheme" type="text/css">
   .ColorScheme-Text { color:#dfdfdf; } .ColorScheme-Highlight { color:#4285f4; } .ColorScheme-NeutralText { color:#ff9800; } .ColorScheme-PositiveText { color:#4caf50; } .ColorScheme-NegativeText { color:#f44336; }
  </style>
 </defs>
 <g transform="translate(-225 -647.36)">
  <path style="opacity:.35;fill:currentColor" class="ColorScheme-Text" transform="translate(225 647.36)" d="m11 3c-1.246 0-2.3111 0.7515-2.7656 1.8281v0.002l5.7656 5.7639v-4.594c0-1.6621-1.338-3-3-3zm-5.6562 0.9375l-1.4063 1.4063 4.0625 4.0624v1.5938c0 1.662 1.3379 3 3 3 0.466 0 0.901-0.113 1.291-0.303l0.729 0.729c-0.592 0.352-1.271 0.574-2.02 0.574-2.2334 0-4-1.767-4-4v-1h-2v1c0 2.969 2.1624 5.432 5 5.906v2.094h2v-2.094c0.91-0.152 1.738-0.527 2.459-1.041l2.197 2.197 1.406-1.406-12.718-12.718zm9.6562 6.0625v1c0 0.186-0.029 0.362-0.053 0.541l1.637 1.637c0.264-0.676 0.416-1.409 0.416-2.178v-1h-2z"/>
 </g>
</svg>
